!!!COM: Bach, Johann Sebastian
!!!CDT: 1685/3//-1750/7/28/
!!!OTL@@DE: Wie schoen leuchtet der Morgenstern
!!!OTL@EN: How bright appears the morning star
!!!AGN: 4-Part Chorale
!!!SCT: Erk 323
!!!SCT: BWV 172
!!!YEC: Copyright 1994, David Huron
!!!YEC: Changes/Additions 2001 by Craig Stuart Sapp
!!!YEN: United States of America
!!!SMA: 371 Bach Chorales, edited by Ludwig Erk, C.F. Peters
!!!PDT: 1850, 1865
!!!ONB: Harmony and Root analysis done manually
**kern	**kern	**kern	**kern	**root	**harm	**kern
!bass	!tenor	!alto	!soprno	!	!	!
*Iorgan	*Iorgan	*Iorgan	*Iorgan	*Iorgan	*	*Iorgan
*M4/4	*M4/4	*M4/4	*M4/4	*M4/4	*M4/4	*M4/4
*met(C)	*met(C)	*met(C)	*met(C)	*met(C)	*met(C)	*met(C)
*MM56	*MM56	*MM56	*MM56	*MM56	*MM56	*MM56
*k[b-]	*k[b-]	*k[b-]	*k[b-]	*k[b-]	*k[b-]	*k[b-]
*F:	*F:	*F:	*F:	*F:	*F:	*F:
*>[A,A,B]	*>[A,A,B]	*>[A,A,B]	*>[A,A,B]	*>[A,A,B]	*>[A,A,B]	*>[A,A,B]
*>A	*>A	*>A	*>A	*>A	*>A	*>A
4F	4A	4c	4f	4FF	I	4F 4a 4cc
=1	=1	=1	=1	=1	=1	=1
4E	4G	4c	8cc	4CC	Vb	4c 4E 4g
.	.	.	8b-	.	.	.
8F	8F	4c	8a	8FF	I	8F 8a 8cc
8E	8G	.	8g	8CC	Vb	8c 8E 8g
4D	8A	8d	4f	4DD	vi	4D 4f 4a
.	8B-	8e	.	.	.	.
4AA	4c	4f	4cc	4FF	Ib	4f 4A 4cc
=2	=2	=2	=2	=2	=2	=2
8BB-	8c	4f	4dd	4BB-	IV	4B- 4dd 4ff
8C	16B-	.	.	.	.	.
.	16A	.	.	.	.	.
8D	8B-	4f	4dd	4BB-	IVb	4b- 4D 4ff
8E	8B-	.	.	.	.	.
4F;	4A;	4f;	4cc;	4FF;	I;	4F; 4a; 4cc;
4E	4c	4g	4cc	4CC	Vb	4c 4E 4g
=3	=3	=3	=3	=3	=3	=3
4F	4c	4a	4dd	4DD	vib	4d 4F 4a
4G	4Bn	4g	4ee	4EE	v/iii	4E 4g 4b
8A	8c	8f	4ff	8FF	Ib	8f 8A 8cc
8Bn	8d	8g	.	8GG	V7b/V	8g 8B 8dd 8ff
8c	8e	4g	4ee	8CC	V	8C 8e 8g
8E	8G	.	.	8CC	Vb	8c 8E 8g
=4	=4	=4	=4	=4	=4	=4
8F	8A	4f	4dd	4DD	vib	4d 4F 4a
8D	8d	.	.	.	.	.
4G	4Bn	4f	4dd	4GG	V7/V	4G 4b 4dd 4ff
4C;	4c;	4e;	4cc;	4CC;	V;	4C; 4e; 4g;
4F	4c	4f	4a	4FF	I	4F 4a 4cc
=5	=5	=5	=5	=5	=5	=5
4BB-	8B-	4f	4dd	4BB-	IV	4B- 4dd 4ff
.	8A	.	.	.	.	.
4C	4G	4e	4cc	4CC	V	4C 4e 4g
8D	8d	8f	4b-	8BB-	IVb	8b- 8D 8ff
8E	8c	8g	.	8CC	V7b	8c 8E 8g 8b-
8F	4c	4f	4a	4FF	I	4F 4a 4cc
8BB-	.	.	.	.	.	.
=6	=6	=6	=6	=6	=6	=6
2C	2c	4f	2g	2CC	V	2C 2e 2g
.	.	4e	.	.	.	.
4FF;	4c;	4f;	4f;	4FF;	I;	4F; 4a; 4cc;
=:|!	=:|!	=:|!	=:|!	=:|!	=:|!	=:|!
*>B	*>B	*>B	*>B	*>B	*>B	*>B
4r	4r	4r	4r	4r	r	4r
=7	=7	=7	=7	=7	=7	=7
2E	2c	2g	2cc	2CC	Vb	2c 2E 2g
2F;	2c;	2a;	2a;	2FF;	I;	2F; 2a; 2cc;
=8	=8	=8	=8	=8	=8	=8
2C	2c	2g	2cc	2CC	V	2C 2e 2g
2FF;	2c;	2f;	2a;	2FF;	I;	2F; 2a; 2cc;
=9	=9	=9	=9	=9	=9	=9
8FF	4c	4f	4a	4FF	I	4F 4a 4cc
8GG	.	.	.	.	.	.
8AA	4c	4f	4a	4FF	Ib	4f 4A 4cc
8BB-	.	.	.	.	.	.
8C	4c	8e	4g	4CC	V	4C 4e 4g
8D	.	8d	.	.	.	.
8E	8c	4c	4g	4CC	Vb	4c 4E 4g
8C	8B-	.	.	.	.	.
=10	=10	=10	=10	=10	=10	=10
8F	8A	4c	4a	4FF	I	4F 4a 4cc
8G	8B-	.	.	.	.	.
8A	4c	8c	4a	4FF	Ib	4f 4A 4cc
8B-	.	8d	.	.	.	.
8c	4c	4e	4g	4CC	V	4C 4e 4g
8B-	.	.	.	.	.	.
8A	4c	4e	4g	4CC	Vc	4c 4e 4G
8G	.	.	.	.	.	.
=11	=11	=11	=11	=11	=11	=11
8F	4c	4f	4a	4FF	I	4F 4a 4cc
8E	.	.	.	.	.	.
8D	4d	4f	4a	4DD	vi	4D 4f 4a
8C	.	.	.	.	.	.
8BB-	4d	4f	2g	4GG	ii7b	4g 4B- 4dd 4ff
8GG	.	.	.	.	.	.
4C	8c	4e	.	4CC	V	4C 4e 4g
.	8B-	.	.	.	.	.
=12	=12	=12	=12	=12	=12	=12
2FF;	2A;	2f;	2f;	2FF;	I;	2F; 2a; 2cc;
8DD	8d	4a	4ff	4DD	vi	4D 4f 4a
8FF	8c	.	.	.	.	.
8GG	4B-	4g	4ee	4EE	viiob	4e 4G 4b-
8AA	.	.	.	.	.	.
=13	=13	=13	=13	=13	=13	=13
4BB-	8B-	4f	4dd	4BB-	IV	4B- 4dd 4ff
.	8A	.	.	.	.	.
4C	4G	4e	4cc	4CC	V	4C 4e 4g
8D	8F	4d	4b-	4BB-	IVb	4b- 4D 4ff
8E	8G	.	.	.	.	.
8F	8A	4c	4a	8FF	I	8F 8a 8cc
8AA	8c	.	.	8FF	Ib	8f 8A 8cc
=14	=14	=14	=14	=14	=14	=14
8BB-	8.B-	4d	2g	4GG	iib	4g 4B- 4dd
8GG	.	.	.	.	.	.
.	16A	.	.	.	.	.
4C	4G	4c	.	4CC	V	4C 4e 4g
4FF;	4A;	4c;	4f;	4FF;	I;	4F; 4a; 4cc;
==	==	==	==	==	==	==
*-	*-	*-	*-	*-	*-	*-
